X:2928
T:Karin Magnussons Polska
S:Av Peter Westerlund
C:Peter Westerlund
Z:[[http://www.bluerose.karenlmyers.org/IncipitsPolskaAlvdalen4.html|Karen Myers (#2928)]]
Z:Upptecknad 6/2007
M:3/4
L:1/8
R:Polska
O:Älvdalen, Dalarna
K:Dm
A |: (3d/e/d/ (3c/d/c/ A2 FA | (3G/A/G/ E/G/ F2 E>^C | (3A,2 ^C2 E2 A>G | E<F DF A>A |
(3d/e/d/ (3c/d/c/ A2 FA | (3G/A/G/ E/G/ F2 E>^C | (3A,2 ^C2 E2 A>G | E<F "^Fine" D4  :|
|: [K:C]D/E/F Ac B>G | A<c ed B>B | B<c Ac B>^G | A/c/B ^G2 E2- |
E2 Ac B>G | A<c ed B>B | B<c A>c B>^G | "^D.C. al Fine" A2 A4  :|
